X: 37367
T: Sleep Soond Ida Mornin'
R: reel
M: 4/4
K: Aminor
AB|:cAeA cAeA|BcdB G2 AB|cAeA cAeA|1 BAGB A2 AB:|2 BAGB A2 GB||
|:Aaag a2 ea|gedB GBdB|Aaag a2 ea|1 gedB A2 GB:|2 gedB A2 AB||
|:(3cBA gA ^fAgA|edBA G2 AB|(3cBA aA gAaA|ecdB A2 AB:|
|:cBcd c2 .c.c|dcde d2 .d.d|eaag agea|gedB A2 AB:|

